icons/svg/club/game.svg

<svg width="48" height="48" fill="none" version="1.1" viewBox="0 0 48 48" xmlns="http://www.w3.org/2000/svg">
 <namedview bordercolor="#666666" borderopacity="1" gridtolerance="10" guidetolerance="10" objecttolerance="10" pagecolor="#ffffff" showgrid="true">
  <grid spacingx="2" spacingy="2" type="xygrid"/>
 </namedview>
 <g fill="#ffffff">
  <path d="m30 6a2 2 0 1 1-4 0 2 2 0 0 1 4 0zm0 12v-5a1 1 0 1 0 2 0v-4a1 1 0 0 0-1-1h-6a1 1 0 0 0-1 1v4a1 1 0 1 0 2 0v5z" clip-rule="evenodd" fill-rule="evenodd"/>
  <path d="m42 6a2 2 0 1 1-4 0 2 2 0 0 1 4 0zm0 12v-5a1 1 0 1 0 2 0v-4a1 1 0 0 0-1-1h-6a1 1 0 0 0-1 1v4a1 1 0 1 0 2 0v5z" clip-rule="evenodd" fill-rule="evenodd"/>
  <path d="m12 22c-5.5715-2.38e-4 -10 4.4096-10 10-2.385e-4 5.5904 4.4076 10 9.998 10h0.001953c3.2211-0.0032 6.2065-1.4298 8.1094-4h7.7773c1.9038 2.5715 4.8906 3.9982 8.1133 4 5.5904 2.39e-4 10-4.4096 10-10 2.39e-4 -5.5904-4.4285-10-10-10h-24zm-2 4h4v4h4v4h-4v4h-4v-4h-4v-4h4v-4zm26 0a2 2 0 0 1 2 2 2 2 0 0 1-2 2 2 2 0 0 1-2-2 2 2 0 0 1 2-2zm-4 4a2 2 0 0 1 2 2 2 2 0 0 1-2 2 2 2 0 0 1-2-2 2 2 0 0 1 2-2zm8 0a2 2 0 0 1 2 2 2 2 0 0 1-2 2 2 2 0 0 1-2-2 2 2 0 0 1 2-2zm-4 4a2 2 0 0 1 2 2 2 2 0 0 1-2 2 2 2 0 0 1-2-2 2 2 0 0 1 2-2z" color="#000000" color-rendering="auto" dominant-baseline="auto" image-rendering="auto" shape-rendering="auto" solid-color="#000000" style="font-feature-settings:normal;font-variant-alternates:normal;font-variant-caps:normal;font-variant-ligatures:normal;font-variant-numeric:normal;font-variant-position:normal;isolation:auto;mix-blend-mode:normal;paint-order:normal;shape-padding:0;text-decoration-color:#000000;text-decoration-line:none;text-decoration-style:solid;text-indent:0;text-orientation:mixed;text-transform:none;white-space:normal"/>
 </g>
</svg>

<svg xmlns:ns0="http://sodipodi.sourceforge.net/DTD/sodipodi-0.dtd" xmlns:ns1="http://www.inkscape.org/namespaces/inkscape" xmlns:rdf="http://www.w3.org/1999/02/22-rdf-syntax-ns#" width="48" height="48" viewBox="0 0 48 48" version="1.1" id="svg8" style="fill:none" ns0:docname="game.svg" ns1:version="0.92.5 (2060ec1f9f, 2020-04-08)" xmlns="http://www.w3.org/2000/svg">
  <metadata id="metadata12">
    <RDF>
      <Work rdf:about="">
        <format>image/svg+xml</format>
        <type rdf:resource="http://purl.org/dc/dcmitype/StillImage" />
        <title />
      </Work>
    </RDF>
  </metadata>
  <defs id="defs10" />
  <namedview pagecolor="#ffffff" bordercolor="#666666" borderopacity="1" objecttolerance="10" gridtolerance="10" guidetolerance="10" ns1:pageopacity="0" ns1:pageshadow="2" ns1:window-width="1920" ns1:window-height="1014" id="namedview8" showgrid="true" ns1:zoom="11.313709" ns1:cx="20.692286" ns1:cy="22.918261" ns1:window-x="1920" ns1:window-y="0" ns1:window-maximized="1" ns1:current-layer="svg8">
    <grid type="xygrid" id="grid822" spacingx="2" spacingy="2" />
  </namedview>
  <path style="clip-rule:evenodd;fill:#ffffff;fill-opacity:1;fill-rule:evenodd" d="m 30,6 a 2,2 0 1 1 -4,0 2,2 0 0 1 4,0 z m 0,12 v -5 a 1,1 0 1 0 2,0 V 9 A 1,1 0 0 0 31,8 h -6 a 1,1 0 0 0 -1,1 v 4 a 1,1 0 1 0 2,0 v 5 z" id="path8-3" ns1:connector-curvature="0" />
  <path style="clip-rule:evenodd;fill:#ffffff;fill-opacity:1;fill-rule:evenodd" d="m 42,6 a 2,2 0 1 1 -4,0 2,2 0 0 1 4,0 z m 0,12 v -5 a 1,1 0 1 0 2,0 V 9 A 1,1 0 0 0 43,8 h -6 a 1,1 0 0 0 -1,1 v 4 a 1,1 0 1 0 2,0 v 5 z" id="path8-6" ns1:connector-curvature="0" />
  <path style="color:#000000;font-style:normal;font-variant:normal;font-weight:normal;font-stretch:normal;font-size:medium;line-height:normal;font-family:sans-serif;font-variant-ligatures:normal;font-variant-position:normal;font-variant-caps:normal;font-variant-numeric:normal;font-variant-alternates:normal;font-feature-settings:normal;text-indent:0;text-align:start;text-decoration:none;text-decoration-line:none;text-decoration-style:solid;text-decoration-color:#000000;letter-spacing:normal;word-spacing:normal;text-transform:none;writing-mode:lr-tb;direction:ltr;text-orientation:mixed;dominant-baseline:auto;baseline-shift:baseline;text-anchor:start;white-space:normal;shape-padding:0;clip-rule:nonzero;display:inline;overflow:visible;visibility:visible;opacity:1;isolation:auto;mix-blend-mode:normal;color-interpolation:sRGB;color-interpolation-filters:linearRGB;solid-color:#000000;solid-opacity:1;vector-effect:none;fill:#ffffff;fill-opacity:1;fill-rule:nonzero;stroke:none;stroke-width:2;stroke-linecap:round;stroke-linejoin:round;stroke-miterlimit:4;stroke-dasharray:none;stroke-dashoffset:0;stroke-opacity:1;marker:none;paint-order:normal;color-rendering:auto;image-rendering:auto;shape-rendering:auto;text-rendering:auto;enable-background:accumulate" d="M 12 22 C 6.4285104 21.999762 1.9997615 26.409551 2 32 C 1.9997615 37.590449 6.4075979 42.000238 11.998047 42 L 12 42 C 15.221111 41.9968 18.206472 40.57023 20.109375 38 L 27.886719 38 C 29.790518 40.571484 32.777279 41.998199 36 42 C 41.590449 42.000239 46.000239 37.590449 46 32 C 46.000239 26.409551 41.57149 21.999761 36 22 L 12 22 z M 10 26 L 14 26 L 14 30 L 18 30 L 18 34 L 14 34 L 14 38 L 10 38 L 10 34 L 6 34 L 6 30 L 10 30 L 10 26 z M 36 26 A 2 2 0 0 1 38 28 A 2 2 0 0 1 36 30 A 2 2 0 0 1 34 28 A 2 2 0 0 1 36 26 z M 32 30 A 2 2 0 0 1 34 32 A 2 2 0 0 1 32 34 A 2 2 0 0 1 30 32 A 2 2 0 0 1 32 30 z M 40 30 A 2 2 0 0 1 42 32 A 2 2 0 0 1 40 34 A 2 2 0 0 1 38 32 A 2 2 0 0 1 40 30 z M 36 34 A 2 2 0 0 1 38 36 A 2 2 0 0 1 36 38 A 2 2 0 0 1 34 36 A 2 2 0 0 1 36 34 z " id="path880" />
</svg>
